X:1
T:Now is the Month of Maying
T:Thomas Morley
%%score 1 2 3 4
L:1/8
Q:1/4=120
M:4/4
K:G
V:1 treble+8 nm="Soprano Recorder" snm="S. Rec."
V:2 treble nm="Alto Recorder" snm="A. Rec."
V:3 treble nm="Tenor Recorder" snm="T. Rec."
V:4 bass+8 nm="Bass Recorder" snm="B. Rec."
V:1
"^\n" G2 | G2 G2 A2 A2 | B4 B2 G2 | B3 A B2 ^c2 | d4 d2 A B | c2 c2 B2 G2 | A2 F2 D2 d c | %7
w: Now|is the month of|May- ing, When|mer- ry lads are|play- ing, Fa la|la la la la|la la la Fa la|
w: The|Spring, clad all in|glad- ness, Doth|laugh at Win- ter's|sad- ness, * *|||
 B2 c2 A2 A2 | G6 :: B2 | A2 d2 d2 ^c2 | d4 z2 A2 | c2 c2 B2 B2 | A4 z2 dc | B2 G2 d4 | %15
w: la la la la|la.|Each|with his bon- ny|lass, A-|danc- ing on the|grass. Fa la|la la la|
w: ||And|to the bag- pipe's|sound, The|nymphs tread out the|ground. * *||
 D E F G A B c2 | B3 c B2 A2 | _G6 :: G2 | G2 G2 A2 A2 | B4 B2 G2 | B3 A B2 ^c2 | d4 d2 A B | %23
w: Fa la la la la la la|la la la la|la.|Fie,|then, why sit we|mus- ing, Youth's|sweet de- light re-|fus- ing? Fa la|
w: ||||||||
 c2 c2 B2 G2 | A2 F2 D2 d c | B2 c2 A2 A2 | G6 :: B2 | A2 d2 d2 ^c2 | d4 z2 A2 | c2 c2 B2 B2 | %31
w: la la la la|la la la Fa la|la la la la|la.|Say,|dain- ty nymphs and|speak, Shall|we play bar- ley|
w: ||||||||
 A4 z2 dc | B2 G2 d4 | D E F G A B c2 | B3 c B2 A2 | G6 :| %36
w: break? Fa la|la la la|Fa la la la la la la|la la la la|la.|
w: |||||
V:2
 d2 | e2 g2 g2 f2 | g4 g2 g2 | g3 f g2 g2 | f4 f2 =f f | e3 ^f g2 g2 | f2 d e f2 f f | %7
w: Now|is the month of|May- ing, When|mer- ry lads are|play- ing, Fa la|la la la la|la la la la, Fa la|
w: The|Spring, clad all in|glad- ness, Doth|laugh at Win- ter's|sad- ness, * *|||
 g2 g2 g2 f2 | g6 :: d2 | =f2 a2 a3 g | f4 z2 =f2 | e2 e2 e2 e2 | e4 a g f2 | d2 g4 d e | %15
w: la la la la|la.|Each|with his bon- ny|lass, A-|danc- ing on the|grass. Fa la la|la la, Fa la|
w: ||And|to the bag- pipe's|sound, The|nymphs tread out the|ground. * * *||
 f g a2 z2 e f | g2 g2 g2 f2 | g6 :: d2 | e2 g2 g2 f2 | g4 g2 g2 | g3 f g2 g2 | f4 f2 =f f | %23
w: la la la, Fa la|la la la la|la.|Fie,|then, why sit we|mus- ing, Youth's|sweet de- light re-|fus- ing? Fa la|
w: ||||||||
 e3 ^f g2 g2 | f2 d e f2 f f | g2 g2 g2 f2 | g6 :: d2 | =f2 a2 a3 g | f4 z2 =f2 | e2 e2 e2 e2 | %31
w: la la la la|la la la la, Fa la|la la la la|la.|Say,|dain- ty nymphs and|speak, Shall|we play bar- ley|
w: ||||||||
 e4 a g f2 | d2 g4 d e | f g a2 z2 e f | g2 g2 g2 f2 | g6 :| %36
w: break? Fa la la|la la, Fa la|la la la, Fa la|la la la la|la.|
w: |||||
V:3
 G2 | G2 G2 C2 C2 | G4 G2 G2 | G3 d B2 e2 | A4 A2 AA | E2 A2 D2 G2 | d6 AA | B2 E2 A2 d2 | d6 :: %9
w: Now|is the month of|May- ing, When|mer- ry lads are|play- ing, Fa la|la la la la|la, Fa la|la la la la|la.|
w: The|Spring, clad all in|glad- ness, Doth|laugh at Win- ter's|sad- ness, * *|||||
 d2 | d2 d2 e2 A2 | A4 z2 A2 | E2 A2 A2 ^G2 | A4 z4 | d c B2 G2 d2- | d2 D E F G A2 | G4 z2 d2 | %17
w: Each|with his bon- ny|lass, A-|danc- ing on the|grass.|Fa la la la la,|_ Fa la la la la|la la|
w: And|to the bag- pipe's|sound, The|nymphs tread out the|ground.||||
 d6 :: G2 | G2 G2 C2 C2 | G4 G2 G2 | G3 d B2 e2 | A4 A2 A A | E2 A2 D2 G2 | d6 A A | B2 E2 A2 d2 | %26
w: la.|Fie,|then, why sit we|mus- ing, Youth's|sweet de- light re-|fus- ing? Fa la|la la la la|la, Fa la|la la la la|
w: |||||||||
 d6 :: d2 | d2 d2 e2 A2 | A4 z2 A2 | E2 A2 A2 ^G2 | A4 z4 | d c B2 G2 d2- | d2 D E F G A2 | %34
w: la.|Say,|dain- ty nymphs and|speak, Shall|we play bar- ley|break?|Fa la la la la,|_ Fa la la la la|
w: ||||||||
 G4 z2 d2 | d6 :| %36
w: la la|la.|
w: ||
V:4
 G,,2 | C,2 C,2 A,,2 A,,2 | G,,4 G,,2 G,,2 | G,3 D, G,2 E,2 | D,4 D,2 D, D, | C,2 A,,2 B,,2 E,2 | %6
w: Now|is the month of|May- ing, When|mer- ry lads are|play- ing, Fa la|la la la la|
w: The|Spring, clad all in|glad- ness, Doth|laugh at Win- ter's|sad- ness, * *||
 D,6 D, D, | G,2 C,2 D,2 D,2 | G,,6 :: G,2 | =F,2 D,2 A,2 A,2 | D,4 z2 D,2 | C,2 A,,2 E,2 E,2 | %13
w: la, Fa la|la la la la|la.|Each|with his bon- ny|lass, A-|danc- ing on the|
w: |||And|to the bag- pipe's|sound, The|nymphs tread out the|
 A,,2 A, G, F,2 D,2 | G,2 G,2 G,, A,, B,, C, | D,6 A,,2 | B,,2 E,2 D,2 D,2 | G,,6 :: G,,2 | %19
w: grass. Fa la la la|la, Fa la la la la|la, la|la la la la|la.|Fie,|
w: ground. * * * *||||||
 C,2 C,2 A,,2 A,,2 | G,,4 G,,2 G,,2 | G,3 D, G,2 E,2 | D,4 D,2 D, D, | C,2 A,,2 B,,2 E,2 | %24
w: then, why sit we|mus- ing, Youth's|sweet de- light re-|fus- ing? Fa la|la la la la|
w: |||||
 D,6 D, D, | G,2 C,2 D,2 D,2 | G,,6 :: G,2 | =F,2 D,2 A,2 A,2 | D,4 z2 D,2 | C,2 A,,2 E,2 E,2 | %31
w: la, Fa la|la la la la|la.|Say,|dain- ty nymphs and|speak, Shall|we play bar- ley|
w: |||||||
 A,,2 A, G, F,2 D,2 | G,2 G,2 G,, A,, B,, C, | D,6 A,,2 | B,,2 E,2 D,2 D,2 | G,,6 :| %36
w: break? Fa la la la|la, Fa la la la la|la, la|la la la la|la.|
w: |||||

